X:1
T:Marcia Clemenza di Titto EHo.058
T:Marcia Clemenza di Titto EHo.058
T:Mozart
C:Mozart
L:1/8
Q:1/4=60
M:2/4
K:Bb
V:1 treble 
V:1
 F/>F/!p! | B>c d/>B/f/>d/ | cF/>F/ Ff/>f/ | A>c f>e | dB/>B/ Bd/>!f!=e/ | fg/>=e/ fg/>e/ | %6
 fc z f/>f/ | (3d/=e/f/ (3g/a/b/ fa/>g/ | ff/>f/ f ::!p! f/>f/ | G>GA>A | B3/2A/4G/4 Fc/c/ | %12
 d/>c/ B/>c/d/>e/ | cF/>F/ FF/>F/ | B>c d/>B/e/>c/ | f f2 f/>f/ | f/>g/e/>f/ d/>e/c/>d/ | %17
 BB/>B/ Bc/>d/ | BB/>B/ Bc/>d/ | BB/>B/ BB | B2- !fermata!B :| %21

